X:1
T:Se for svulmende Sejl
T:Se for svulmende Sejl
T:Agathe Backer Grøndahl
%%score [ 1 2 3 4 ]
L:1/8
Q:1/4=116
M:4/4
K:Ab
V:1 treble-8 nm="T1"
V:2 treble-8 nm="T2"
V:3 bass nm="B1"
V:4 bass nm="B2"
V:1
 e4 c4 | B2 A F E2 A c | (e4 f2) c c | e6 e e | a2 a a g2 d d | f2 f f e2 A2 | d2 d d _c2 B A | %7
w: Se for|svul- men- de Sejl o- ver|Sang- * bøl- gens|Spejl har du|vug- get din Snek- ke i|Ung- dom mens Spor, din|Snek- ke i Ung- dom- mens|
 e6 z2 | f4 d4 | d2 c d e2 d c | f4 e2 e2 | d4 e2 e2 | e2 =d d _d2 c c | f2 g g a2 g f | e6 e e | %15
w: Spor;|nu du|ven- der din Stavn i- mod|Kvæld- sol og|Havn, vil vi|flok- kes for sid- ste- gang|kring dig om- bord, vil vi|flok- kes for|
 e6 e e | a4 a2 a2 | a6 z2 |] %18
w: sid- ste- gang|kring dig om-|bord.|
V:2
 c4 A4 | G2 F =D E2 E A | c6 c c | d6 d d | d2 d d d2 B B | B2 B B B2 A2 | A2 G G F2 F F | G6 z2 | %8
w: Se for|svul- men- de Sejl o- ver|Sang- bøl- gens|Spejl har du|vug- get din Snek- ke i|Ung- dom mens Spor, din|Snek- ke i Ung- dom- mens|Spor;|
 d4 B4 | B2 =A B A2 A A | B4 G2 =A2 | B4 d2 d2 | c2 A A A2 A c | _c2 c c c2 c c | c2 B c d2 A B | %15
w: nu du|ven- der din Stavn i- mod|Kvæld- sol og|Havn, vil vi|flok- kes for sid- ste- gang|kring dig om- bord, vil vi|flok- kes for sid- ste- gang|
 c2 G A B2 F G | d4 B2 _c2 | c6 z2 |] %18
w: kring dig om- bord, flok- kes|kring dig om-|bord.|
V:3
 E,4 _F,4 | C,2 D, _C, =C,2 C, E, | A,6 A, A, | B,6 B, B, | B,2 B, B, B,2 G, G, | %5
w: Se for|svul- men- de Sejl o- ver|Sang- bøl- gens|Spejl har du|vug- get din Snek- ke i|
 G,2 G, G, E,2 E,2 | _F,2 E, E, =D,2 D, D, | E,6 z2 | F,4 F,4 | _G,2 G, G, G,2 G, G, | %10
w: Ung- dom mens Spor, din|Snek- ke i Ung- dom- mens|Spor;|nu du|ven- der din Stavn i- mod|
 F,4 F,2 F,2 | F,4 B,2 B,2 | A,2 A, A, A,2 A, A, | A,2 G, G, F,2 G, A, | A,2 G, A, B,2 F, G, | %15
w: Kvæld- sol og|Havn, vil vi|flok- kes for sid- ste- gang|kring dig om- bord, vil vi|flok- kes for sid- ste- gang|
 A,2 B,, C, D,2 A,, B,, | F,4 D,2 =D,2 | E,6 z2 |] %18
w: kring dig om- bord, flok- kes|kring dig om-|bord.|
V:4
 A,,4 A,,4 | A,,2 A,, A,, A,,2 A,, A,, | (A,4 F,2) A, A, | G,6 G, G, | F,2 F, F, E,2 E, E, | %5
w: Se for|svul- men- de Sejl o- ver|Sang- * bøl- gens|Spejl har du|vug- get din Snek- ke i|
 D,2 D, D, C,2 C,2 | B,,2 B,, B,, A,,2 B,, _C, | E,,6 z2 | B,,4 B,,4 | E,2 E, D, C,2 D, E, | %10
w: Ung- dom mens Spor, din|Snek- ke i Ung- dom- mens|Spor;|nu du|ven- der din Stavn i- mod|
 F,4 F,2 F,2 | F,4 G,2 G,2 | _G,2 F, F, _F,2 E, E, | =D,2 D, D, D,2 D, D, | E,6 E,2 | %15
w: Kvæld- sol og|Havn, vil vi|flok- kes for sid- ste- gang|kring dig om- bord, vil vi|flok- kes|
 E,2 B,, C, D,2 A,, B,, | A,,4 A,,2 A,,2 | A,,6 z2 |] %18
w: kring dig om- bord, flok- kes|kring dig om-|bord.|

